src/telerik-icons/solid/list-roman-upper.svg

<?xml version="1.0" encoding="utf-8"?>
<svg xmlns="http://www.w3.org/2000/svg" width="512" height="512" viewBox="0 0 512 512">
  <path d="M32 32h32v128H32V32zm0 288h32V192H32v128zm64 0h32V192H96v128zM32 480h32V352H32v128zm64 0h32V352H96v128zm64 0h32V352h-32v128zM128 96h352v32H128V96zm64 160h288v32H192v-32zm64 160h224v32H256v-32zM96 152c0 4.4-3.6 8-8 8s-8-3.6-8-8 3.6-8 8-8 8 3.6 8 8zm64 160c0 4.4-3.6 8-8 8s-8-3.6-8-8 3.6-8 8-8 8 3.6 8 8zm64 160c0 4.4-3.6 8-8 8s-8-3.6-8-8 3.6-8 8-8 8 3.6 8 8z"/>
</svg>

<?xml version="1.0" encoding="utf-8"?>
<!-- Generator: Adobe Illustrator 25.0.0, SVG Export Plug-In . SVG Version: 6.00 Build 0)  -->
<svg xmlns="http://www.w3.org/2000/svg"
	 width="512px" height="512px" viewBox="0 0 512 512" enable-background="new 0 0 512 512">
<path d="M32,32h32v128H32V32z M32,320h32V192H32V320z M96,320h32V192H96V320z M32,480h32V352H32V480z M96,480h32V352H96V480z
	 M160,480h32V352h-32V480z M128,96h352v32H128V96z M192,256h288v32H192V256z M256,416h224v32H256V416z M96,152c0,4.4-3.6,8-8,8
	s-8-3.6-8-8s3.6-8,8-8S96,147.6,96,152z M160,312c0,4.4-3.6,8-8,8s-8-3.6-8-8s3.6-8,8-8S160,307.6,160,312z M224,472
	c0,4.4-3.6,8-8,8s-8-3.6-8-8s3.6-8,8-8S224,467.6,224,472z" />
</svg>
